X: 4339
T: HARK! THE HUNTSMAN'S HORN. (Martha)
%R: air, march, jig
B: James Kerr "Merry Melodies" v.4 p.36 #339
Z: 2016 John Chambers <jc:trillian.mit.edu>
M: 6/8
L: 1/8
K: C
|:"_p 2nd f"\
GzA GzE | GzA GzE | Gce e3 | ded g3 |\
GzA GzE | GzA GzE | Gce e3 | ded c2z H:| !p!\
dze dze |
cze cze | cze edc | Bze gze |\
dze dze | cze czc | cze edc | Bze gze |\
dze dze | cze czc |
cze edc | B2z !f!g2f |\
e2e e2e | fef A3 | !p!AzA BzG | cGA Bcd |\
!f!e2e e2e | fef a3 | aag fed | cGG GG"_D.C."G |]

%%sep 1 1 500
%%sep 1 1 500

